X: 10222
T: TIMOUR THE TARTAR -- Reel
R: reel
B: K\"ohler's Violin Repository, v.1, 1885 p.22 #2
F: http://www.archive.org/details/klersviolinrepos01edin
Z: 2011 John Chambers <jc:trillian.mit.edu>
M: C
L: 1/8
K: A
vA2 ((3cBA) eA ((3cBA) | (eA)aA gAfA | A2 ((3cBA) eA ((3cBA) | (BE)(cE) (dE)(BE) |
 A2 ((3cBA) eA ((3cBA) | (eA)aA gAfA | (ef)ec (ea)ec | (BA)Bc A2z2 ||
vE2 ((3GFE) BE ((3GFE) | (BE)dE cEBE | A2 ((3cBA) eA ((3cBA) | (eA)aA gAfA |
 eA ((3cBA) (aA)fA | eA ((3cBA) (aA)fA | (ec)ag (fe)dc | BAGF "D.C."EFGE "_Fine"|]

%%sep 2 1 500

